X: 1053
T: Alyth's
R: slip jig
M: 9/8
K: Bminor
F2B de2 A3|F2B d2e fd2|B2d de2 c2A|a2d Bec- c2A|
F2d de2 B2A|F2B d2e fd2|B2d de2 c2A|a2d Bec- c2A|
[M:12/8] d2d a2d cdB- B2A|[M:9/8] f2g a2d cA2|[M:12/8] f2f e2d efd- d2f|[M:9/8] b2a f2d cA2|
[M:12/8] d2d a2f efB- B2A|[M:9/8] f2g a2d cA2|[M:12/8] f2f e2d efd- d2f|[M:9/8] baf fed cAB||

